Catalina-light/actions/16/folder-new-symbolic.svg

<?xml version="1.0" encoding="UTF-8" standalone="no"?>
<svg
   xmlns:dc="http://purl.org/dc/elements/1.1/"
   xmlns:cc="http://creativecommons.org/ns#"
   xmlns:rdf="http://www.w3.org/1999/02/22-rdf-syntax-ns#"
   xmlns:svg="http://www.w3.org/2000/svg"
   xmlns="http://www.w3.org/2000/svg"
   xmlns:sodipodi="http://sodipodi.sourceforge.net/DTD/sodipodi-0.dtd"
   xmlns:inkscape="http://www.inkscape.org/namespaces/inkscape"
   viewBox="0 0 16 16"
   id="svg3313"
   version="1.1"
   inkscape:version="0.91 r13725"
   sodipodi:docname="folder-new-symbolic.svg">
  <metadata
     id="metadata3321">
    <rdf:RDF>
      <cc:Work
         rdf:about="">
        <dc:format>image/svg+xml</dc:format>
        <dc:type
           rdf:resource="http://purl.org/dc/dcmitype/StillImage" />
      </cc:Work>
    </rdf:RDF>
  </metadata>
  <sodipodi:namedview
     pagecolor="#ffffff"
     bordercolor="#666666"
     borderopacity="1"
     objecttolerance="10"
     gridtolerance="10"
     guidetolerance="10"
     inkscape:pageopacity="0"
     inkscape:pageshadow="2"
     inkscape:window-width="640"
     inkscape:window-height="480"
     id="namedview3319"
     showgrid="false"
     inkscape:zoom="39.8125"
     inkscape:cx="6.0910518"
     inkscape:cy="8"
     inkscape:current-layer="svg3313" />
  <defs
     id="defs3051">
    <style
       type="text/css"
       id="current-color-scheme">
      .ColorScheme-Text {
        color:#bebebe;
      }
      </style>
    <style
       id="current-color-scheme-67"
       type="text/css">
      .ColorScheme-Text {
        color:#bebebe;
      }
      </style>
    <style
       type="text/css"
       id="current-color-scheme-6">
      .ColorScheme-Text {
        color:#bebebe;
      }
      </style>
  </defs>
  <path
     style="color:#bebebe;fill:currentColor;fill-opacity:1;stroke:none"
     d="M 2.2148438,3.000603 C 2.0950597,3.000603 2,3.0965146 2,3.2154324 L 2,11.972658 14,12 14,4.4829256 C 14,4.3640108 13.902983,4.2661432 13.783202,4.2661432 l -6.5058582,0 C 7.0569678,4.2854882 7.0288179,4.2581183 6.9199218,4.1138096 6.7654899,3.9086265 6.5328913,3.3569904 6.3808594,3.1568426 6.2588352,2.9816074 6.2394932,3.000603 6.0371094,3.000603 l -3.8222656,0 z m 5.3847656,3.3005601 0.8007812,0 0,1.5838782 1.5996094,0 0,0.8007277 -1.5996094,0 0,1.615126 -0.8007812,0 0,-1.615126 -1.5996094,0 0,-0.8007277 1.5996094,0 0,-1.5838782 z"
     id="path3317"
     inkscape:connector-curvature="0" />
</svg>

<svg version="1.1" viewBox="0 0 16 16" xmlns="http://www.w3.org/2000/svg">
<defs>
<style id="current-color-scheme" type="text/css">.ColorScheme-Text {
        color:#bebebe;
      }</style>
<style id="current-color-scheme-67" type="text/css">.ColorScheme-Text {
        color:#bebebe;
      }</style>
<style id="current-color-scheme-6" type="text/css">.ColorScheme-Text {
        color:#bebebe;
      }</style>
</defs>
<path d="m2.2148 3.0006c-0.11978 0-0.21484 0.095912-0.21484 0.21483v8.7572l12 0.027342v-7.5171c0-0.11891-0.097017-0.21678-0.2168-0.21678h-6.5059c-0.22038 0.019345-0.24853-0.0080249-0.35742-0.15233-0.15443-0.20518-0.38703-0.75682-0.53906-0.95697-0.12202-0.17524-0.14137-0.15624-0.34375-0.15624h-3.8223zm5.3848 3.3006h0.80078v1.5839h1.5996v0.80073h-1.5996v1.6151h-0.80078v-1.6151h-1.5996v-0.80073h1.5996v-1.5839z" color="#bebebe" fill="currentColor"/>
</svg>
